X: 19
M: 6/8
L: 1/8
K: C
e |\
(c>dc) GEG | (cd).c a2g | agf edc | dAA (A2B) |\
(c>dc) GEG | (cd).c a2g | gab c'gf | ecc c2 :|
|: c |\
ceg c'ba | (ge).c {e}Td2c | edc Gcd | ecc c2 :|


